_includes/icons/color-dropbox.svg

<svg fill="#666" height="50" viewBox="0 0 48 48" width="50" xmlns="http://www.w3.org/2000/svg"><g fill="#1e88e5"><path d="m42 13.976563-10.621094-6.722657-7.378906 6.058594 11.027344 6.417969z"/><path d="m6 25.648438 10.933594 6.40625 7.066406-5.421875-10.472656-6.664063z"/><path d="m16.933594 7.253906-10.933594 7.046875 7.527344 5.667969 10.472656-6.65625z"/><path d="m24 26.632813 7.210938 5.421875 10.789062-6.40625-6.972656-5.917969z"/><path d="m32.195313 33.777344-1.148438.683594-1.066406-.804688-5.980469-4.496094-5.84375 4.484375-1.066406.820313-1.15625-.679688-2.933594-1.71875v2.671875l10.988281 7.261719 11.011719-7.207031v-2.679688z"/></g></svg>

<svg xmlns="http://www.w3.org/2000/svg" viewBox="0 0 48 48" width="50" height="50" fill="#666"><g fill="#1e88e5"><path d="M 42 13.976563 L 31.378906 7.253906 L 24 13.3125 L 35.027344 19.730469 Z"/><path d="M 6 25.648438 L 16.933594 32.054688 L 24 26.632813 L 13.527344 19.96875 Z"/><path d="M 16.933594 7.253906 L 6 14.300781 L 13.527344 19.96875 L 24 13.3125 Z"/><path d="M 24 26.632813 L 31.210938 32.054688 L 42 25.648438 L 35.027344 19.730469 Z"/><path d="M 32.195313 33.777344 L 31.046875 34.460938 L 29.980469 33.65625 L 24 29.160156 L 18.15625 33.644531 L 17.089844 34.464844 L 15.933594 33.785156 L 13 32.066406 L 13 34.738281 L 23.988281 42 L 35 34.792969 L 35 32.113281 Z"/></g></svg>
